!!!OTL: Der Narrentanz. / (Volkstanzmelodie mit Taktwechsel.)
!!!ARE: Europa, Mitteleuropa, Deutschland
!!!SCT: A0357
!!!TXL: @@GMH
!!!YEM: Copyright 1995, estate of Helmut Schaffrath.
**kern	**text
*M6/2	*
*met(O/3)	*
*clefC3	*
*k[]	*
*G:mix	*
!LO:N:vis=1	!
!LO:TX:a:t=mixolyd.	!
2ryy	I.
!LO:N:vis=1	!
2ryy	.
!LO:N:vis=1	!
{2G	Ein
=1	=1
!LO:TX:a:t=P:coloured notes:problem	!
1G	läp-
!LO:TX:a:t=P:coloured notes:problem	!
1G	-piſch
!LO:TX:a:t=P:coloured notes:problem	!
2A	man,
!LO:TX:a:t=P:coloured notes:problem	!
2B	der
=2	=2
!LO:N:vis=0	!
1c	nar-
!LO:N:vis=1	!
2c	-ren
!LO:N:vis=0	!
1c}	kan,
!LO:N:vis=1	!
{2c	den
=3	=3
!LO:TX:a:t=P:coloured notes:problem	!
1A	hat
!LO:TX:a:t=P:coloured notes:problem	!
1A	man
!LO:TX:a:t=P:coloured notes:problem	!
2B	ſchon
!LO:TX:a:t=P:coloured notes:problem	!
2c	ʒu
=4	=4
!LO:N:vis=0	!
1d	ſpot
!LO:N:vis=1	!
2d	und
!LO:N:vis=0	!
1d}	hon,
!LO:N:vis=1	!
{2d	ein
=5	=5
!LO:TX:a:t=P:coloured notes:problem	!
1f	kapp
!LO:TX:a:t=P:coloured notes:problem	!
1f	ſtet
!LO:TX:a:t=P:coloured notes:problem	!
2e	im
!LO:TX:a:t=P:coloured notes:problem	!
2c	nit
=6	=6
!LO:N:vis=0	!
1d	ü-
!LO:N:vis=1	!
2d	-bel
!LO:N:vis=0	!
1A}	an,
!LO:N:vis=1	!
{2B	vil
=7	=7
!LO:N:vis=1	!
2c	ſchel-
!LO:N:vis=0	!
1A	-len
!LO:N:vis=0	!
1G	dran,
!LO:N:vis=1	!
2G	die
=8	=8
!LO:N:vis=0	!
1c	welt
!LO:N:vis=1	!
2e	die
!LO:N:vis=0	!
1d	muß
!LO:N:vis=1	!
2c	ʒu
=9	=9
*lig	*
!LO:TX:a:t=P:coloured notes:problem	!
1B	la-
!LO:TX:a:t=P:coloured notes:problem	!
1c	.
*Xlig	*
!LO:TX:a:t=P:coloured notes:problem	!
1A	-chen
=10	=10
0.G/ll}	han.
==	==
!!!GTL: Trink. und Zechlieder, incl. Fastnacht- u. Martinslieder
!!!AGN: Romanze, Ballade, Lied
!! Pet. Schoeffer II 1537  No. 38.
!!!ONB: ESAC (Essen Associative Code) Database: ALTDEU
!!!AMT: compound duple
!!!AIN: vox
!!!EED: Helmut Schaffrath
!!!EEV: 1.0
!!!RDF**kern: l = terminal long
!!!AMD: Mixolydian
!!!URL-scan: https://rosdok.uni-rostock.de/mcrviewer/recordIdentifier/rosdok_ppn738218359/iview2/phys_0501.iview2?x=-495.6391625615763&y=2250.8226601276547&scale=0.4629418472063854&rotation=0&layout=singlePageLayout&logicalDiv=log_0013
!!!ENC: Anna Maria Matuszewska
!!!EEV: 2024/13/03
*-	*-
